X:1379
T:The Mills are Grinding
M:C|
L:1/8
N:"2nd Setting" "collected by Ennis"
B:O'Neill's 1379
Z:"Transcribed by Bob Safranek, rjs@gsp.org"
K:D
3DDD DE GFEFG|ABGB Ad d z|3DDD DE GFEFG|ABGF EFGE|
3DDD DE GFEFG|ABGB  Addg|fdec d2 AB|dcBcG ED D "   Fine"z||
dcdB c2 3ABc|d2 fd cAAc|dcdB cBcA|GEcE ED D z|
dcdB c2 3ABc|d2 fd cAAg|fdec d2 AB|dcBcG EFG"   D.C."E|]
